static/icons/maria.svg

<svg width="294" height="191" viewBox="0 0 294 191" fill="none" xmlns="http://www.w3.org/2000/svg">
<path d="M292.55 0.950017C291.759 0.277153 290.748 -0.0790912 289.71 -0.049983C286.87 -0.049983 283.21 1.87002 281.25 2.95002L280.46 3.35002C277.156 4.95109 273.558 5.85646 269.89 6.01002C266.13 6.13002 262.89 6.35002 258.67 6.78002C233.67 9.36002 222.52 28.52 211.78 47.05C205.94 57.13 199.9 67.55 191.62 75.62C189.901 77.2788 188.077 78.8253 186.16 80.25C177.59 86.64 166.83 91.15 158.42 94.37C150.35 97.45 141.56 100.22 133.05 102.9C125.27 105.35 117.91 107.66 111.15 110.18C108.1 111.31 105.51 112.18 103.22 112.94C97.07 114.94 92.62 116.47 86.14 120.94C83.61 122.67 81.07 124.54 79.34 125.94C74.1887 130.048 69.6319 134.85 65.8 140.21C62.5006 145.159 58.6896 149.748 54.43 153.9C53.07 155.24 50.63 155.9 47 155.9C42.73 155.9 37.57 155.02 32.09 154.09C26.61 153.16 20.63 152.09 15.63 152.09C11.56 152.09 8.46001 152.75 6.13001 154.09C6.13001 154.09 2.23001 156.37 0.570007 159.32L2.19001 160.05C4.70363 161.415 7.0325 163.095 9.12001 165.05C11.2817 167.065 13.6991 168.786 16.31 170.17C17.1507 170.49 17.9141 170.984 18.55 171.62C17.86 172.62 16.86 173.91 15.81 175.29C10.04 182.84 6.68001 187.61 8.61001 190.21C9.53393 190.694 10.5679 190.928 11.61 190.89C24.2 190.89 30.95 187.62 39.51 183.48C41.98 182.28 44.51 181.04 47.51 179.78C52.51 177.61 57.89 174.15 63.59 170.49C71.14 165.64 78.95 160.62 86.51 158.19C92.7395 156.29 99.2283 155.379 105.74 155.49C113.74 155.49 122.16 156.56 130.28 157.6C136.34 158.38 142.6 159.18 148.75 159.6C151.14 159.74 153.35 159.81 155.51 159.81C158.386 159.818 161.26 159.668 164.12 159.36L164.8 159.12C169.12 156.47 171.14 150.78 173.09 145.28C174.35 141.74 175.41 138.56 177.09 136.54C177.19 136.439 177.301 136.348 177.42 136.27C177.499 136.226 177.59 136.21 177.679 136.225C177.768 136.239 177.849 136.283 177.91 136.35C177.928 136.402 177.928 136.458 177.91 136.51C176.91 158.02 168.24 171.67 159.49 183.81L153.55 190.04C153.55 190.04 161.73 190.04 166.39 188.24C183.39 183.16 196.23 171.96 205.57 154.1C207.872 149.516 209.928 144.813 211.73 140.01C211.89 139.61 213.37 138.87 213.22 140.94C213.22 141.55 213.14 142.23 213.09 142.94C213.09 143.36 213.03 143.79 213.01 144.22C212.76 147.22 212.01 153.56 212.01 153.56L217.26 150.75C229.92 142.75 239.68 126.61 247.08 101.5C250.17 91.04 252.42 80.65 254.41 71.5C256.79 60.5 258.84 51.07 261.19 47.41C264.88 41.67 270.51 37.79 275.96 34.02C276.71 33.51 277.45 33.02 278.18 32.48C285.04 27.67 291.85 22.12 293.34 11.77V11.54C294.48 3.82002 293.55 1.90002 292.55 0.950017Z" fill="white"/>
</svg>

<svg width="294" height="191" fill="none" xmlns="http://www.w3.org/2000/svg"><path d="M292.55.95a4.2 4.2 0 0 0-2.84-1c-2.84 0-6.5 1.92-8.46 3l-.79.4a26.811 26.811 0 0 1-10.57 2.66c-3.76.12-7 .34-11.22.77-25 2.58-36.15 21.74-46.89 40.27-5.84 10.08-11.88 20.5-20.16 28.57a55.774 55.774 0 0 1-5.46 4.63c-8.57 6.39-19.33 10.9-27.74 14.12-8.07 3.08-16.86 5.85-25.37 8.53-7.78 2.45-15.14 4.76-21.9 7.28-3.05 1.13-5.64 2-7.93 2.76-6.15 2-10.6 3.53-17.08 8-2.53 1.73-5.07 3.6-6.8 5a71.257 71.257 0 0 0-13.54 14.27 84.83 84.83 0 0 1-11.37 13.69c-1.36 1.34-3.8 2-7.43 2-4.27 0-9.43-.88-14.91-1.81s-11.46-2-16.46-2c-4.07 0-7.17.66-9.5 2 0 0-3.9 2.28-5.56 5.23l1.62.73a33.583 33.583 0 0 1 6.93 5 33.674 33.674 0 0 0 7.19 5.12 6.38 6.38 0 0 1 2.24 1.45c-.69 1-1.69 2.29-2.74 3.67-5.77 7.55-9.13 12.32-7.2 14.92a5.994 5.994 0 0 0 3 .68c12.59 0 19.34-3.27 27.9-7.41 2.47-1.2 5-2.44 8-3.7 5-2.17 10.38-5.63 16.08-9.29 7.55-4.85 15.36-9.87 22.92-12.3a62.278 62.278 0 0 1 19.23-2.7c8 0 16.42 1.07 24.54 2.11 6.06.78 12.32 1.58 18.47 2 2.39.14 4.6.21 6.76.21 2.876.008 5.75-.142 8.61-.45l.68-.24c4.32-2.65 6.34-8.34 8.29-13.84 1.26-3.54 2.32-6.72 4-8.74.1-.101.211-.192.33-.27a.396.396 0 0 1 .259-.045c.089.014.17.058.231.125a.244.244 0 0 1 0 .16c-1 21.51-9.67 35.16-18.42 47.3l-5.94 6.23s8.18 0 12.84-1.8c17-5.08 29.84-16.28 39.18-34.14a144.507 144.507 0 0 0 6.16-14.09c.16-.4 1.64-1.14 1.49.93 0 .61-.08 1.29-.13 2 0 .42-.06.85-.08 1.28-.25 3-1 9.34-1 9.34l5.25-2.81c12.66-8 22.42-24.14 29.82-49.25 3.09-10.46 5.34-20.85 7.33-30 2.38-11 4.43-20.43 6.78-24.09 3.69-5.74 9.32-9.62 14.77-13.39.75-.51 1.49-1 2.22-1.54 6.86-4.81 13.67-10.36 15.16-20.71v-.23c1.14-7.72.21-9.64-.79-10.59Z" fill="#fff"/></svg>
